source/img/icon/mobile-icon.svg

<svg width="10" height="16" viewBox="0 0 10 16" fill="none" xmlns="http://www.w3.org/2000/svg">
<path d="M8.36594 0H1.63407C0.989805 0 0.469727 0.522411 0.469727 1.16551V14.8357C0.469727 15.4782 0.989805 16 1.63407 16H8.36594C9.00905 16 9.53029 15.4782 9.53029 14.8357V1.16551C9.53029 0.522411 9.00905 0 8.36594 0ZM3.33891 0.70782H6.66228C6.74624 0.70782 6.81445 0.833175 6.81445 0.988266C6.81445 1.14336 6.74624 1.2693 6.66228 1.2693H3.33891C3.25436 1.2693 3.18731 1.14336 3.18731 0.988266C3.18731 0.833175 3.25436 0.70782 3.33891 0.70782ZM5.00059 14.8496C4.59071 14.8496 4.25721 14.5161 4.25721 14.1057C4.25721 13.6952 4.59071 13.3629 5.00059 13.3629C5.40931 13.3629 5.74281 13.6952 5.74281 14.1057C5.74281 14.5161 5.40931 14.8496 5.00059 14.8496ZM8.65805 12.3023H1.34255V1.96662H8.65805V12.3023Z" fill="#737D90"/>
</svg>

<svg width="10" height="16" fill="none" xmlns="http://www.w3.org/2000/svg"><path d="M8.366 0H1.634C.99 0 .47.522.47 1.166v13.67C.47 15.478.99 16 1.634 16h6.732c.643 0 1.164-.522 1.164-1.164V1.166C9.53.522 9.01 0 8.366 0zM3.339.708h3.323c.084 0 .152.125.152.28 0 .155-.068.281-.152.281H3.34c-.085 0-.152-.126-.152-.28 0-.156.067-.281.152-.281zM5 14.85a.744.744 0 0 1 0-1.487.743.743 0 0 1 0 1.487zm3.657-2.548H1.343V1.967h7.315v10.335z" fill="#737D90"/></svg>
